X:1
T:Title
%%score { ( 1 3 ) | ( 2 4 ) }
L:1/8
M:6/4
K:D
V:1 treble nm="Grand Piano"
V:3 treble 
V:2 bass 
V:4 bass 
V:1
 z6 z4[Q:1/4=132] F2 | A4 A2 B4 A2 | [DF]4 [CE]2 D6 | D2 G2 B2 d4 B2 |[M:5/4] [GB]6 [FA]4 | %5
[M:1/4] [DA]2 |[M:6/4] [CA]4 [CE]2 [CE]4 [CA]2 | A4 F2 F6 | E2 A2 [Ac]2 [Ae]2 d2 c2 | %9
[M:13/8] B-B-B- B3 A-A-A-A- A2- A/ z/ |[M:6/4] [FA]2 [FB]2 [Fc]2 [Fe]4 [Fd]2 | [Gd]6 z6 | %12
 G2 A2 B2 d4 c2 | [FB]6 [FA]4 D2 |[M:3/4] D2 F2 [FA]2 | [Fd]2 [Fd]2 [Fd]2 | %16
[M:6/4] d2 c2 d2 e2 d2 B2 | A3 B c2 d4 f2 |[M:5/4] e6 d4 |] %19
V:2
 z6 z4 [D,A,D]2 | [D,F,D]4 [D,F,D]2 [D,G,D]4 [D,F,D]2 | [A,,A,]4 [A,,G,]2 [D,F,]6 | %3
 [G,B,]2[K:treble] [G,B,D]2 [G,DG]2 [G,B,G]4 [G,DG]2 |[M:5/4][K:bass] [D,D]6 [D,D]4 | %5
[M:1/4] [D,F,]2 |[M:6/4] [A,,E,]4 [A,,A,]2 [A,,A,]4 [A,,G,]2 | [D,F,D]4 [D,A,D]2 [D,A,D]6 | %8
 [E,A,C]2 [E,CE]2 [E,E]2 [E,C]2 [E,B,E]2 [E,A,E]2 |[M:13/8] D-D-D- D3 z z z z z z2 | %10
[M:6/4] [D,D]2 [D,D]2 [D,D]2 [D,A,]4 [D,A,]2 | .[E,A,]6[K:treble] [A,G]6 | %12
 [A,E]2 [A,F]2 [A,G]2 [A,B,G]4 [A,CG]2 | [D,D]6 [D,D]4 [D,F,]2 |[M:3/4] [D,F,]2 [D,A,D]2 [D,D]2 | %15
 [D,D]2 [D,D]2 [D,=C]2 |[M:6/4][K:treble] [G,B,G]2 [G,^A,G]2 [G,B,G]2 [G,CG]2 [G,B,G]2 [G,DG]2 | %17
 [A,DF]3 [A,DF] [A,DF]2 [A,DF]4 [A,DF]2 |[M:5/4][K:bass] [A,,G,CE]6 [D,F,D]4 |] %19
V:3
 x12 | x12 | x12 | x12 |[M:5/4] x10 |[M:1/4] x2 |[M:6/4] x12 | x12 | x12 | %9
[M:13/8] z z z2 ^G,2 [A,C]- [A,C]3 [CG]3 |[M:6/4] x12 | z4 B,2 c6 | x12 | x12 |[M:3/4] x6 | x6 | %16
[M:6/4] x12 | x12 |[M:5/4] x10 |] %19
V:4
 x12 | x12 | x12 | x2[K:treble] x10 |[M:5/4][K:bass] x10 |[M:1/4] x2 |[M:6/4] x12 | x12 | x12 | %9
[M:13/8] [E,A,]- [E,-A,]3 E,3/2 z/ A,,- A,,3 A,3 |[M:6/4] x12 | x6[K:treble] x6 | x12 | x12 | %14
[M:3/4] x6 | x6 |[M:6/4][K:treble] x12 | x12 |[M:5/4][K:bass] x10 |] %19

